markets/FXS.svg

<svg width="42" height="42" viewBox="0 0 42 42" fill="none" xmlns="http://www.w3.org/2000/svg">
<circle cx="21" cy="21" r="21" fill="black"/>
<path d="M21 40.8872C31.9835 40.8872 40.8873 31.9834 40.8873 21C40.8873 10.0166 31.9835 1.11273 21 1.11273C10.0166 1.11273 1.11279 10.0166 1.11279 21C1.11279 31.9834 10.0166 40.8872 21 40.8872Z" fill="black"/>
<path d="M29.0768 25.8258C29.0768 23.9871 28.3122 22.4772 26.8054 21.3348C25.6911 20.4903 24.1339 19.7983 21.6076 19.0219C17.0603 17.6247 17.0603 16.8201 17.0603 16.1726C17.0603 15.2777 18.3849 14.0375 20.8697 14.0375C22.341 14.0375 24.8095 14.4079 24.8095 16.8912H28.9464C28.9464 15.7207 28.6841 14.6287 28.1878 13.676L31.5068 10.357L28.5819 7.43213L25.1992 10.8163C23.9724 10.2147 22.504 9.90211 20.8712 9.90211C19.3495 9.90211 17.9508 10.1955 16.7447 10.76L13.4183 7.43361L10.4934 10.3585L13.6494 13.5145C13.1782 14.3383 12.9249 15.248 12.9249 16.1741C12.9249 18.0129 13.6894 19.5227 15.1963 20.6651C16.3105 21.5097 17.8634 22.2001 20.3896 22.9765C24.9369 24.3723 24.9399 25.1798 24.9399 25.8273C24.9399 26.7223 23.6153 27.9624 21.1305 27.9624C19.6592 27.9624 17.1907 27.592 17.1907 25.1087H13.0538C13.0538 26.2837 13.3175 27.3786 13.8169 28.3343L10.4919 31.6593L13.4168 34.5841L16.8114 31.1896C18.0367 31.7882 19.5006 32.0993 21.129 32.0993C22.6463 32.0993 24.0405 31.8074 25.2437 31.2473L28.5819 34.5856L31.5068 31.6607L28.3448 28.4988C28.8205 27.6691 29.0768 26.7578 29.0768 25.8258Z" fill="white"/>
</svg>

<svg width="42" height="42" viewBox="0 0 42 42" fill="none" xmlns="http://www.w3.org/2000/svg"><circle cx="21" cy="21" r="21" fill="#000"/><path d="M21 40.887c10.983 0 19.887-8.904 19.887-19.887S31.983 1.113 21 1.113 1.113 10.017 1.113 21 10.017 40.887 21 40.887z" fill="#000"/><path d="M29.077 25.826c0-1.839-.765-3.349-2.272-4.491-1.114-.845-2.671-1.537-5.197-2.313-4.548-1.397-4.548-2.202-4.548-2.85 0-.894 1.325-2.135 3.81-2.135 1.471 0 3.94.37 3.94 2.854h4.136c0-1.17-.262-2.262-.758-3.215l3.319-3.319-2.925-2.925-3.383 3.384c-1.227-.601-2.695-.914-4.328-.914-1.521 0-2.92.293-4.126.858l-3.327-3.326-2.925 2.924 3.156 3.156a5.35 5.35 0 00-.724 2.66c0 1.839.764 3.349 2.271 4.491 1.115.845 2.667 1.535 5.194 2.312 4.547 1.395 4.55 2.203 4.55 2.85 0 .895-1.325 2.135-3.81 2.135-1.47 0-3.94-.37-3.94-2.853h-4.136c0 1.175.264 2.27.763 3.225l-3.325 3.325 2.925 2.925 3.394-3.394c1.226.598 2.69.91 4.318.91 1.517 0 2.912-.293 4.115-.853l3.338 3.339 2.925-2.925-3.162-3.162a5.36 5.36 0 00.732-2.673z" fill="#fff"/></svg>
